ix/money-3_bulk.svg

<svg viewBox="0 0 24 24" fill="none" xmlns="http://www.w3.org/2000/svg" height="1em" width="1em">
  <path opacity=".4" d="M17 20.5H7c-3 0-5-1.5-5-5v-7c0-3.5 2-5 5-5h10c3 0 5 1.5 5 5v7c0 3.5-2 5-5 5Z" fill="#292D32"/>
  <path d="M12 15a3 3 0 1 0 0-6 3 3 0 0 0 0 6Zm7-7.25h-3c-.41 0-.75-.34-.75-.75s.34-.75.75-.75h3c.41 0 .75.34.75.75s-.34.75-.75.75Zm-11 10H5c-.41 0-.75-.34-.75-.75s.34-.75.75-.75h3c.41 0 .75.34.75.75s-.34.75-.75.75Z" fill="#292D32"/>
</svg>

<svg viewBox="0 0 24 24" fill="none" xmlns="http://www.w3.org/2000/svg" height="1em" width="1em">
  <path opacity="0.4" d="M17 20.5H7C4 20.5 2 19 2 15.5V8.5C2 5 4 3.5 7 3.5H17C20 3.5 22 5 22 8.5V15.5C22 19 20 20.5 17 20.5Z" fill="#292D32"/>
  <path d="M12 15C13.6569 15 15 13.6569 15 12C15 10.3431 13.6569 9 12 9C10.3431 9 9 10.3431 9 12C9 13.6569 10.3431 15 12 15Z" fill="#292D32"/>
  <path d="M19 7.75H16C15.59 7.75 15.25 7.41 15.25 7C15.25 6.59 15.59 6.25 16 6.25H19C19.41 6.25 19.75 6.59 19.75 7C19.75 7.41 19.41 7.75 19 7.75Z" fill="#292D32"/>
  <path d="M8 17.75H5C4.59 17.75 4.25 17.41 4.25 17C4.25 16.59 4.59 16.25 5 16.25H8C8.41 16.25 8.75 16.59 8.75 17C8.75 17.41 8.41 17.75 8 17.75Z" fill="#292D32"/>
</svg>
